X: 38
T: String Quartet No. 10 in E\b Major, Op. 74 mvt 1
C: Ludwig van Beethoven
%%abc-version 2.0
%%abcx-abcm2ps-target-version 5.9.1 (29 Sep 2008)
%%abc-creator hum2abc beta
%%abcx-conversion-date 2021/01/27 10:01:14
%%gracespace 0 6 6
%%humdrum-veritas 3338507129
%%humdrum-veritas-data 480437486
%%linebreak <none>
%%barnumbers 0
L: 1/8
M: 4/4
N: Derived from quartet10-1.krn
Q: "Poco Adagio. Allegro" 1/4=72
%%staves [1 2 3 4]
V: 1 clef=treble
V: 2 clef=treble
V: 3 clef=alto
V: 4 clef=bass
K: Eb
[V:1] e4G3A | 
[V:2] G4E3E | 
[V:3] B,4B,3A, | 
[V:4] E,4_D,3C, | 
[V:1] _d2z2z4 | 
[V:2] E2z2z4 | 
[V:3] G,2z2z4 | 
[V:4] B,,2z2z4 | 
[V:1] e4G3A | 
[V:2] G4E3E | 
[V:3] B,4B,3A, | 
[V:4] E,4_D,3C, | 
[V:1] _d8- | 
[V:2] =E2z2b4- | 
[V:3] B,2z2z2=E2- | 
[V:4] G,,2z2z4 | 
[V:1] d6=d2- | 
[V:2] b4a4- | 
[V:3] E4F4- | 
[V:4] F,,6B,,2 | 
[V:1] d4e2cf | 
[V:2] a4g2fF | 
[V:3] F2_c2B2=C2 | 
[V:4] E,,6=A,,2 | 
[V:1] e2d2c2B2 | 
[V:2] F4A2G2 | 
[V:3] A,4D,3E, | 
[V:4] B,,8 | 
[V:1] B2A zA2G z | 
[V:2] G2F zB,2B, z | 
[V:3] =E,2F,2D,2_E,2 | 
[V:4] C,4F,,3G,, | 
[V:1] G2-G/F/=E/F/ E/F/G/F/ e/f/g/f/ | 
[V:2] C2z2z4 | 
[V:3] A,2z2z2A,2- | 
[V:4] A,,2z2z2F,,2- | 
[V:1] a2_C2B,2B3/A//G// | 
[V:2] z2F>G AFB,B, | 
[V:3] A,2[F,2-A,2][F,A,]F,G,E, | 
[V:4] F,,2E,,2D,,D,E,G,, | 
[V:1] F2z2z FGA | 
[V:2] C2z2z CB,A, | 
[V:3] E,2z2z E,E,E, | 
[V:4] A,,2z2z A,,B,,C, | 
[V:1] G2F2z GAB | 
[V:2] B,2C2z _DCB, | 
[V:3] E,2E,2z E,E,E, | 
[V:4] B,,2=A,,2z B,,C,_D, | 
[V:1] A2G2[G,E_d] zz2 | 
[V:2] C2_D2[EB] zz2 | 
[V:3] E,2E,2[E,G,] zz2 | 
[V:4] C,2B,,2G,, zz2 | 
[V:1] z2c2-c/c'/b/a/ g/b/a/f/ | 
[V:2] z8 | 
[V:3] C4=E,3F, | 
[V:4] z8 | 
[V:1] [E8e8]- | 
[V:2] A2z2z ABc | 
[V:3] F,2z2z F,G,A, | 
[V:4] C,2z2z C,B,,A,, | 
[V:1] [E8e8]- | 
[V:2] B2=A2z Bc_d | 
[V:3] G,2F,2z G,A,B, | 
[V:4] B,,2C,2z _D,C,B,, | 
[V:1] [E4e4][Ge_d'] zz2 | 
[V:2] c2B2[Bb] zz2 | 
[V:3] A,2G,2[G,EB] zz2 | 
[V:4] C,2_D,2G,, zz2 | 
[V:1] _c4D3E | 
[V:2] _C8- | 
[V:3] A,8 | 
[V:4] z8 | 
[V:1] E2>_F2F3=F | 
[V:2] C8 | 
[V:3] A,8 | 
[V:4] z8 | 
[V:1] F2>_G2G3=G | 
[V:2] _D8 | 
[V:3] B,8 | 
[V:4] z8 | 
[V:1] G2>A2A3=A | 
[V:2] _D2>E2F3_G | 
[V:3] B,2>_C2C3=C | 
[V:4] A,,4D,,3E,, | 
[V:1] =A2>B2B3_c | 
[V:2] _G2>=G2_D2_C2 | 
[V:3] C2>_D2_F3E | 
[V:4] E,4G,,3A,, | 
[V:1] _c2>=c2_d4- | 
[V:2] E4=E4- | 
[V:3] z2_G,2=G,4- | 
[V:4] _G,4=A,,3B,, | 
[V:1] d2>=d2d3e | 
[V:2] E2>F2[B,3-F3][B,E] | 
[V:3] G,2>A,2A,3G, | 
[V:4] B,,4B,,3E, | 
[V:1] [M:C][M:4/4][G,2E2e2]z2.E2.G2 | 
[V:2] [M:C][M:4/4][B,2E2]z2.B,2.B,2 | 
[V:3] [M:C][M:4/4][E,2G,2]z2.G,2.G,2 | 
[V:4] [M:C][M:4/4]E,,2z2.E,2.E,2 | 
[V:1] .B2z2z4 | 
[V:2] .B,2z2z B,CD | 
[V:3] .F,2z2z4 | 
[V:4] .D,2z2z4 | 
[V:1] z4b4- | 
[V:2] EDEG FEFA | 
[V:3] z8 | 
[V:4] z8 | 
[V:1] b2gab2_d2 | 
[V:2] GFGB EDEB | 
[V:3] E,4G,4 | 
[V:4] E,,8- | 
[V:1] c4a3g | 
[V:2] EDEc EDEA | 
[V:3] A,4C4 | 
[V:4] E,,8- | 
[V:1] f2>c'2b3a | 
[V:2] F=EFA D^CDF | 
[V:3] D4B,4 | 
[V:4] E,,8- | 
[V:1] ^f2g2z4 | 
[V:2] B,=A,B,E GGEB, | 
[V:3] E2z2B,4- | 
[V:4] E,,4-E,,E,C,G,, | 
[V:1] z2g4ab | 
[V:2] G,2E4E2- | 
[V:3] B,2G,A,B,2_D,2 | 
[V:4] E,,4G,,4 | 
[V:1] c'8- | 
[V:2] E4e4- | 
[V:3] C,4A,3G, | 
[V:4] A,,4F,,4 | 
[V:1] c'4d'4 | 
[V:2] e4f4 | 
[V:3] F,2>C2 B,A,.G,.F, | 
[V:4] B,,4B,,4 | 
[V:1] e'bbb bbbb | 
[V:2] g[eg][eg][eg] [eg][eg][eg][eg] | 
[V:3] E,2z2E,2G,2 | 
[V:4] E,,2z2z4 | 
[V:1] bbbb [ca][ca][ca][ca] | 
[V:2] [df][df][df][df] ffff | 
[V:3] z4F,2A,2 | 
[V:4] B,,2D,2z4 | 
[V:1] [cg][cg][cg][cg] [cf][cf][cf][cf] | 
[V:2] eeee eeee | 
[V:3] z4A,2C2 | 
[V:4] C,2E,2z4 | 
[V:1] [Bg][Bg][Bg][Bg] [Ba][Ba][Ba][Ba] | 
[V:2] eeee [cf][cf][df][df] | 
[V:3] E2z2B,2z2 | 
[V:4] z2E,2z2B,,2 | 
[V:1] [B2g2]z2e2g2 | 
[V:2] eGGGz4 | 
[V:3] E, EEE GGGG | 
[V:4] E,,2z2EEEE | 
[V:1] z4f2a2 | 
[V:2] B2_d2z4 | 
[V:3] FFFF [CF][CF][CF][CF] | 
[V:4] _DDDD[K:clef=tenor] AAAA | 
[V:1] z4a2c'2 | 
[V:2] c2e2z4 | 
[V:3] [CE][CE][B,E][CE] [CF][CF][CF][CF] | 
[V:4] GGGG[K:clef=bass] A,A,A,A, | 
[V:1] e'2z2b2z2 | 
[V:2] z2e2z2B2 | 
[V:3] [B,E][B,E][B,E][B,E] [B,E][B,E][B,E][B,E] | 
[V:4] G,G,G,G, _G,G,G,G, | 
[V:1] [f2f'2]z2z4 | 
[V:2] z2.[=A2f2]z4 | 
[V:3] .[=A,2F2]z2_G4- | 
[V:4] .F,,2z2z4 | 
[V:1] c4_d4 | 
[V:2] =A4B4 | 
[V:3] G4=G4 | 
[V:4] E4=E4 | 
[V:1] .[f2f'2]z2z4 | 
[V:2] .=A2.[A2f2]z4 | 
[V:3] .[F,2=A,2]z2_G4- | 
[V:4] .F,,2z2z4 | 
[V:1] c8 | 
[V:2] =A8 | 
[V:3] G8 | 
[V:4] E8 | 
[V:1] _d8 | 
[V:2] B8 | 
[V:3] =G8 | 
[V:4] =E8 | 
[V:1] g4-gf.c.d | 
[V:2] c4-c.c.=A.B | 
[V:3] [F4=A4]-[FA].[FA].F.F | 
[V:4] E4-EE.E.D | 
[V:1] eG=AF BFcF | 
[V:2] cEEE DD=A,A, | 
[V:3] ECCF, F,F,F,F, | 
[V:4] CF,F,F, B,,B,,F,,F,, | 
[V:1] d2z2z2z g- | 
[V:2] F2z2z=A2=B | 
[V:3] B,F2^F G=FD.D | 
[V:4] B,,2z2z4 | 
[V:1] gf2.c' .f.d'.f.e' | 
[V:2] .c.G.=A.F .B.F.c.F | 
[V:3] .E.G,.=A,.F, .B,.F,.C.F, | 
[V:4] zE,,2E,, .D,,.D,,.=A,,.A,, | 
[V:1] d'ffff2z2 | 
[V:2] ddddd2z2 | 
[V:3] B,4-B,/=A,/G,/F,/ G,/A,/B,/C/ | 
[V:4] B,,2z2z4[K:clef=tenor] | 
[V:1] z bbbb2z2 | 
[V:2] z dddd2z2 | 
[V:3] D4-D/C/B,/=A,/ B,/C/D/E/ | 
[V:4] B,4-B,/=A,/G,/F,/ G,/A,/B,/C/ | 
[V:1] z4b4- | 
[V:2] B4-B/=A/G/F/ G/A/B/c/ | 
[V:3] F/G/=A/B/ A/G/F/E/ D/E/F/G/ F/E/D/C/ | 
[V:4] D/E/F/G/ F/E/D/C/ B, zz2 | 
[V:1] b/=a/g/f/ g/a/b/c'/ d'/c'/b/a/ b/c'/d'/e'/ | 
[V:2] d/e/f/g/ f/e/d/c/ B zz2 | 
[V:3] B, zz2F,/G,/=A,/B,/ A,/G,/F,/E,/ | 
[V:4] z8[K:clef=bass] | 
[V:1] .f'2.g'2.=a'2.b'2 | 
[V:2] z8 | 
[V:3] D, zz2z4 | 
[V:4] D,/E,/F,/G,/ F,/E,/D,/C,/ B,,.=A,,.G,,.F,, | 
[V:1] b'2B4(3cde | 
[V:2] z2C4=A,2 | 
[V:3] z2G,4_G,2 | 
[V:4] =E,,6_E,,2 | 
[V:1] f6a2 | 
[V:2] F2z2z4 | 
[V:3] F,2z2z4 | 
[V:4] D,,2z2D,/E,/F,/G,/ F,/E,/D,/C,/ | 
[V:1] g2d'2d2g2 | 
[V:2] F6=B2 | 
[V:3] =B,/C/D/E/ D/C/B,/=A,/ G, zz2 | 
[V:4] =B,, zz2z4 | 
[V:1] f2e4g2 | 
[V:2] G2c2C2z2 | 
[V:3] z8 | 
[V:4] z4C,/D,/E,/F,/ E,/D,/C,/B,,/ | 
[V:1] f2c'2c2f2 | 
[V:2] z GFc- cECF | 
[V:3] =A,/B,/C/D/ C/B,/A,/G,/ F, zz2 | 
[V:4] =A,, zz2A,,/B,,/C,/D,/ E,/F,/G,/=A,/ | 
[V:1] e2d4[d2d'2] | 
[V:2] B,/C/B,/C/ D/E/D/E/ F/G/F/G/ .A.A | 
[V:3] z2B,/C/B,/C/ D/E/D/E/ .F.F | 
[V:4] B,6B,2 | 
[V:1] [d8d'8]- | 
[V:2] =A4=B4- | 
[V:3] ^F4=F4 | 
[V:4] =A,4G,4 | 
[V:1] [dd']c'.d'.e'g2=a2 | 
[V:2] Bc.d.eG2=A2 | 
[V:3] E2C4_D2 | 
[V:4] C,2E,4=E,2 | 
[V:1] b4c'3F | 
[V:2] B4=A3A | 
[V:3] .=DDEF EC.=A,.E, | 
[V:4] F,4F,,4 | 
[V:1] B,/C/B,/C/ D/E/D/E/ F/G/F/G/ .A.A | 
[V:2] B2A,/C/B,/C/ D/E/D/E/ .F.F | 
[V:3] D,2[D,4D4][D,2D2] | 
[V:4] B,,6B,,2 | 
[V:1] =A4=B4 | 
[V:2] ^F4=F4 | 
[V:3] [D,8D8]- | 
[V:4] =A,,4G,,4 | 
[V:1] c2e2z2c'2 | 
[V:2] E2c2z2e2 | 
[V:3] [D,D]C=B,C DEG,C | 
[V:4] C,,C,=B,,C, D,E,G,,C, | 
[V:1] z2d'2z2f'2 | 
[V:2] z2B2z2=A2 | 
[V:3] CB,F,G, F,G,.F,.F, | 
[V:4] C,B,,F,,G,, F,,G,,.F,,.F,, | 
[V:1] d4-dfdd | 
[V:2] B4-BcBB | 
[V:3] F,4-F,FF,F, | 
[V:4] B,,4-B,,=A,,B,,B,, | 
[V:1] dfdd decc | 
[V:2] BcBB Bc=AA | 
[V:3] F,FF,F, F,FF,F, | 
[V:4] B,,=A,,B,,B,, B,,F,,F,,F,, | 
[V:1] cdd2z ECC | 
[V:2] =ABB2z C=A,A, | 
[V:3] F,B,B,2z F,F,F, | 
[V:4] F,,B,,B,,2z F,,F,,F,, | 
[V:1] CDD2z ECD | 
[V:2] =A,B,B,2z C=A,B, | 
[V:3] F,2F,2z F,F,F, | 
[V:4] F,,B,,B,,2z F,,F,,B,, | 
[V:1] D2z2D2z2 | 
[V:2] B,2z2B,2z2 | 
[V:3] F,2z2F,2z2 | 
[V:4] B,,2z2B,,2z2 | 
[V:1] .D2.D2.D2.D2 | 
[V:2] .B,2.B,2.B,2.B,2 | 
[V:3] .F,2.F,2.F,2.F,2 | 
[V:4] .B,,2.B,,2.B,,2.B,,2 | 
[V:1] D8 | 
[V:2] B,8 | 
[V:3] F,8 | 
[V:4] B,,8 | 
[V:1] D8 :|]  
[V:2] B,8 :|]  
[V:3] F,8 :|]  
[V:4] B,,8 :|]  
[V:1] [G,2D2=B2g2]z2.G2.B2 | 
[V:2] [G,2D2=B2]z2.=B,2.G2 | 
[V:3] [G,2G2]z2.D2.=B,2 | 
[V:4] G,,2z2.G,2.G,2 | 
[V:1] .d2z2z4 | 
[V:2] .D2z2z4 | 
[V:3] .=A,2z2z D,=E,^F, | 
[V:4] .^F,2z2z4 | 
[V:1] z8 | 
[V:2] z4d4- | 
[V:3] G,^F,G,=B, =A,G,A,C | 
[V:4] z8 | 
[V:1] z4g4- | 
[V:2] d2=Bcd2F2 | 
[V:3] =B,=A,B,D G,DB,D | 
[V:4] G,2z2.=B,,2.G,2 | 
[V:1] g2efg2c2 | 
[V:2] E2z2z4 | 
[V:3] G,2z2z4 | 
[V:4] .C,2z2z G,,=A,,=B,, | 
[V:1] z8 | 
[V:2] z4B4 | 
[V:3] z8 | 
[V:4] C,=B,,C,E, D,C,D,F, | 
[V:1] z4b2ga | 
[V:2] B2GAB2_D2 | 
[V:3] G,^F,G,B, G,F,G,B, | 
[V:4] [=E,8G,8]- | 
[V:1] b2_d2b2ga | 
[V:2] B2GAB2_D2 | 
[V:3] G,^F,G,B, G,F,G,B, | 
[V:4] [E,8G,8]- | 
[V:1] b2z2z2.G.A | 
[V:2] B2z2z2.G,.A, | 
[V:3] G,2.G,.A,B,2z2 | 
[V:4] [E,2G,2].G,,.A,,.B,,2z2 | 
[V:1] B2z2z2.g.a | 
[V:2] B,2z2z2.G.A | 
[V:3] z2.G.A.B2z2 | 
[V:4] z2.G,.A,B,2z2 | 
[V:1] b2.g.ab2.g.a | 
[V:2] B2.G.AB2G.A | 
[V:3] [_D,8_D8] | 
[V:4] z4[K:clef=tenor]G4- | 
[V:1] b2.g.=a .b.=e.f.g | 
[V:2] B2.G.=A .B.c.=d.=e | 
[V:3] [C,4C4][C,4C4] | 
[V:4] G2=EFG2B,2 | 
[V:1] =a=bc'=d' =e'f'g=a | 
[V:2] .f.G.=A.=B .c.d.=e.f | 
[V:3] [C,4C4][C,4C4] | 
[V:4] =A,4F3=E | 
[V:1] =bc'd'=e' f'g'=a'=b' | 
[V:2] .g.=a.=B.c .d.=e.f.g | 
[V:3] [C,4C4][C,4C4] | 
[V:4] D2>=A2G3F | 
[V:1] c''2z2g4- | 
[V:2] .=a.=b.c'.d' .=e'.f'.g' B/B/ | 
[V:3] [C,4C4]=E,4 | 
[V:4] ^D2=E2[K:clef=bass]C,,4- | 
[V:1] g2=efg2B2 | 
[V:2] B/B,/B,/B,/ B,/B,/B,/B,/ B,/B/G/G/ G/G/G/G/ | 
[V:3] =E,/E,/E,/E,/ F,/F,/F,/F,/ E,/E,/E,/E,/ C/C/C/C/ | 
[V:4] C,,2_D,,2C,,2=E,,2 | 
[V:1] =A4f3=e | 
[V:2] G/G/G/G/ F/F/F/F/ =B/B/B/B/ c/c/c/c/ | 
[V:3] C/C/C/C/ =D/D/D/D/ D/D/D/D/ C/C/C/C/ | 
[V:4] F,,2=D,,2G,,2=A,,2 | 
[V:1] d2>=a2g3=b | 
[V:2] d/D/D/D/ D/D/D/D/ D/F/F/F/ F/F/F/F/ | 
[V:3] C/C/C/C/ C/C/C/C/ =B,/D/D/D/ D/D/D/D/ | 
[V:4] G,,2F,2G,2G,,2 | 
[V:1] c'8- | 
[V:2] =E/E/C/C/ E/E/C/C/ F/F/C/C/ F/F/C/C/ | 
[V:3] C,/C,/=E,/E,/ C,/C,/E,/E,/ D,/D,/F,/F,/ D,/D,/F,/F,/ | 
[V:4] C,,2z[K:clef=tenor] C2<=B,2=A, | 
[V:1] c'3c/B/ (3=AGF (3=EDC | 
[V:2] G/G/C/C/ G/G/C/C/ =A/A/C/C/ A/A/C/C/ | 
[V:3] =E,/E,/G,/G,/ E,/E,/G,/G,/ F,/F,/D/D/ F,/F,/D/D/ | 
[V:4] G,2>=E2F3D | 
[V:1] =B,2>=e2f3d | 
[V:2] F/F/=B,/B,/ F/F/B,/B,/ F/F/B,/B,/ F/F/B,/B,/ | 
[V:3] D/D/G,/G,/ D/D/G,/G,/ D/D/G,/G,/ D/D/G,/G,/ | 
[V:4] G8- | 
[V:1] =B2>d'2f3g | 
[V:2] F/F/D/D/ F/F/=B/B/ c/c/B/B/ c/c/d/d/ | 
[V:3] D/D/=B,/B,/ D/D/G,/G,/ =A,/A,/G,/G,/ A,B, | 
[V:4] G8[K:clef=bass] | 
[V:1] =e2z C2<=B,2=A, | 
[V:2] =eC/C/ =E/E/C/C/ F/F/C/C/ F/F/C/C/ | 
[V:3] C,/C,/=E,/E,/ C,/C,/E,/E,/ D,/D,/F,/F,/ D,/D,/F,/F,/ | 
[V:4] C8- | 
[V:1] G,2>=E2F3D | 
[V:2] G/G/C/C/ G/G/G,/G,/ =A/A/C/C/ A/A/C/C/ | 
[V:3] =E,/E,/G,/G,/ C,/C,/C/C/ F,/F,/D/D/ F,/F,/D/D/ | 
[V:4] C3C,/=B,,/ (3=A,,G,,F,, (3=E,,D,,C,, | 
[V:1] G8- | 
[V:2] F/F/D/D/ F/F/D/D/ D/D/=B,/B,/ D/D/B,/B,/ | 
[V:3] D/D/=B,/B,/ D/D/B,/B,/ B,/B,/G,/G,/ B,/B,/G,/G,/ | 
[V:4] =B,,2>=E,2F,3D, | 
[V:1] G2>G2=A3=B | 
[V:2] F/F/D/D/ F/F/D/D/ D/D/=B,/B,/ D/D/B,/B,/ | 
[V:3] D/D/=B,/B,/ D/D/B,/B,/ B,/B,/G,/G,/ B,/B,/G,/G,/ | 
[V:4] =B,,2>D2F,3G, | 
[V:1] c2z d'2<f2g | 
[V:2] =E/E/C/C/ F/F/D/D/ F/F/D/D/ F/F/D/D/ | 
[V:3] C/C/G,/G,/ D/D/G,/G,/ D/D/G,/G,/ D/D/G,/G,/ | 
[V:4] =E,2z G,,2<=A,,2=B,, | 
[V:1] =e2z G2<=A2=B | 
[V:2] =E/E/C/C/ D/D/=B,/B,/ D/D/B,/B,/ D/D/B,/B,/ | 
[V:3] C/C/G,/G,/ =B,/B,/G,/G,/ B,/B,/G,/G,/ B,/B,/G,/G,/ | 
[V:4] C,2z D2<F,2G, | 
[V:1] c2z d'2<f2g | 
[V:2] =E/E/C/C/ F/F/D/D/ F/F/D/D/ F/F/D/D/ | 
[V:3] C/C/G,/G,/ D/D/G,/G,/ D/D/G,/G,/ D/D/G,/G,/ | 
[V:4] =E,2z G,,2<A,,2=B,, | 
[V:1] =e2>c2f3=a | 
[V:2] =E/E/C/C/ E/E/C/C/ F/F/C/C/ F/F/C/C/ | 
[V:3] C/C/C,/C,/ =E,/E,/C,/C,/ F,/F,/C,/C,/ F,/F,/C,/C,/ | 
[V:4] C,2>B,,2=A,,3F,, | 
[V:1] c'2>=e2g3=B | 
[V:2] G/G/C/C/ G/G/G,/G,/ =B,/B,/D/D/ B,/B,/D/D/ | 
[V:3] G,/G,/C,/C,/ G,/G,/C,/C,/ D,/D,/F,/F,/ D,/D,/F,/F,/ | 
[V:4] =E,,2>C,,2G,,3G,, | 
[V:1] c2>C2z4 | 
[V:2] C2z2C/C/G,/G,/ C/C/G,/G,/ | 
[V:3] =E,/E,/C,/C,/ E,/E,/C,/C,/z4 | 
[V:4] C,,2z2C,3C,, | 
[V:1] =e2>=E2z4 | 
[V:2] z4=E/E/C/C/ E/E/C/C/ | 
[V:3] =E,/E,/C,/C,/ E,/E,/C,/C,/z4 | 
[V:4] z4=E,3=E,, | 
[V:1] g2>G2z4 | 
[V:2] z4G/G/=E/E/ G/G/E/E/ | 
[V:3] G,/G,/=E,/E,/ G,/G,/E,/E,/z4 | 
[V:4] z4G,3G,, | 
[V:1] c'2>c2z4 | 
[V:2] z4B/B/G/G/ B/B/G/G/ | 
[V:3] B,/B,/G,/G,/ B,/B,/G,/G,/z4 | 
[V:4] z4C3C, | 
[V:1] c2>C2z4 | 
[V:2] z4A/A/F/F/ A/A/F/F/ | 
[V:3] A,/A,/F,/F,/ A,/A,/F,/F,/z4 | 
[V:4] z4C,3C,, | 
[V:1] _c2>_C2z4 | 
[V:2] z4A/A/F/F/ A/A/F/F/ | 
[V:3] A,/A,/F,/F,/ A,/A,/F,/F,/z4 | 
[V:4] z4D,3D,, | 
[V:1] B2>B,2z4 | 
[V:2] z4A/A/F/F/ A/A/F/F/ | 
[V:3] A,/A,/F,/F,/ A,/A,/F,/F,/z4 | 
[V:4] z4D,3D,, | 
[V:1] B2>B,2z4 | 
[V:2] z4_G/G/E/E/ G/G/E/E/ | 
[V:3] _G,/G,/E,/E,/ G,/G,/E,/E,/z4 | 
[V:4] z4E,3E,, | 
[V:1] B2>B,2z4 | 
[V:2] z4D/D/B,/B,/ D/D/B,/B,/ | 
[V:3] A,/A,/F,/F,/ A,/A,/F,/F,/z4 | 
[V:4] z4F,3F,, | 
[V:1] B2>B,2z4 | 
[V:2] z4E/E/B,/B,/ E/E/B,/B,/ | 
[V:3] _G,/G,/E,/E,/ G,/G,/E,/E,/z4 | 
[V:4] z4_G,3_G,, | 
[V:1] B2>F2z4 | 
[V:2] z4_C/B,/C/B,/ C/B,/C/B,/ | 
[V:3] =A,/B,/A,/B,/ A,/B,/A,/B,/z4 | 
[V:4] z4B,3F, | 
[V:1] _G2>E2z4 | 
[V:2] z4_C/B,/C/B,/ C/B,/C/B,/ | 
[V:3] =A,/B,/A,/B,/ A,/B,/A,/B,/z4 | 
[V:4] z4_G,3E, | 
[V:1] D2>B,2z4 | 
[V:2] z4=C/B,/C/B,/ C/B,/C/B,/ | 
[V:3] =A,/B,/A,/B,/ A,/B,/A,/B,/z4 | 
[V:4] z4D,3B,, | 
[V:1] E2>=A,2z4 | 
[V:2] z4=B,/C/B,/C/ B,/C/B,/C/ | 
[V:3] F,/_G,/F,/G,/ F,/G,/F,/G,/z4 | 
[V:4] z4E,3=A,, | 
[V:1] D2>B,2z4 | 
[V:2] z4C/B,/C/B,/ C/B,/C/B,/ | 
[V:3] =E,/F,/E,/F,/ E,/F,/E,/F,/z4 | 
[V:4] z4D,3B,, | 
[V:1] D2>B,2z4 | 
[V:2] z4C/B,/C/B,/ C/B,/C/B,/ | 
[V:3] =E,/F,/E,/F,/ E,/F,/E,/F,/z4 | 
[V:4] z4D,3B,, | 
[V:1] [B,8D8]- | 
[V:2] z8 | 
[V:3] z8 | 
[V:4] z4B,,2D,2 | 
[V:1] [B,8D8]- | 
[V:2] z8 | 
[V:3] z4D,2F,2 | 
[V:4] F,2B,2z4 | 
[V:1] D8- & B,8- | 
[V:2] z4F2B2 | 
[V:3] B,2D2z4 | 
[V:4] z8 | 
[V:1] [B,8D8] | 
[V:2] d2f2z4 | 
[V:3] z8 | 
[V:4] z4(3B,,2 D,2 F,2 | 
[V:1] [A,8D8]- | 
[V:2] z8 | 
[V:3] z4(3D,2 F,2 B,2 | 
[V:4] (3D,2 F,2 B,2z4 | 
[V:1] [A,8D8]- | 
[V:2] z4(3B,2 D2 F2 | 
[V:3] (3F,2 B,2 D2z4 | 
[V:4] z8 | 
[V:1] [A,8D8] | 
[V:2] (3B2 d2 f2z4 | 
[V:3] z8 | 
[V:4] z4B,,D,F,B, | 
[V:1] F8- & A,8- | 
[V:2] z8 | 
[V:3] z4D,F,B,D | 
[V:4] D,F,B,Dz4 | 
[V:1] [A,8F8]- | 
[V:2] z4DFBd | 
[V:3] F,B,DFz4 | 
[V:4] z8 | 
[V:1] [A,8F8] | 
[V:2] FBdfz4 | 
[V:3] z8 | 
[V:4] z4(3B,,D,F, (3B,DF | 
[V:1] [F8A8]- | 
[V:2] z4(3B,DF (3Bdf | 
[V:3] (3D,F,B, (3DFBz4 | 
[V:4] z8 | 
[V:1] [F8A8]- | 
[V:2] z8 | 
[V:3] z4(3D,F,A, (3B,DF | 
[V:4] (3B,,D,F, (3A,B,Dz4 | 
[V:1] [F4A4](3DFA (3Bdf | 
[V:2] (3B,DF (3ABd (3[df][df][df] (3[df][df][df] | 
[V:3] z4(3AFD (3B,A,F, | 
[V:4] z8 | 
[V:1] (3ABd (3fab (3d'f'a' a'D | 
[V:2] (3[df]AA (3AAA (3afd (3BAF | 
[V:3] (3D,[DF][DF] (3[DF][DF][DF] (3[DF][F,A,][F,A,] (3[F,A,][F,A,][F,A,] | 
[V:4] (3FDB, (3A,F,D, (3B,,B,,B,, (3B,,B,,B,, | 
[V:1] [G,2E2e2]z2.E2.G2 | 
[V:2] [G,2E2]z2.B,2.B,2 | 
[V:3] [E,2G,2]z2.G,2.E2 | 
[V:4] E,,2z2.E,2.E,2 | 
[V:1] .B2z2z4 | 
[V:2] .F2z2z B,CD | 
[V:3] .B,2z2z4 | 
[V:4] .D,2z2z4 | 
[V:1] z4b4- | 
[V:2] EDEG F=EFA | 
[V:3] z8 | 
[V:4] z8 | 
[V:1] b2gab2_d2 | 
[V:2] GFGB EDEB | 
[V:3] E,8- | 
[V:4] E,4G,4 | 
[V:1] c4a3g | 
[V:2] EDEc EDEA | 
[V:3] E,8- | 
[V:4] A,4C4 | 
[V:1] f2>c'2b3a | 
[V:2] F=EFA D^CDF | 
[V:3] E,8- | 
[V:4] D4B,4 | 
[V:1] ^f2g2z4 | 
[V:2] B,=A,B,Ez4 | 
[V:3] E,4G,^F,G,B, | 
[V:4] E2z2[K:clef=tenor]B4- | 
[V:1] g^fgb egab | 
[V:2] z4E4- | 
[V:3] E,4G,4 | 
[V:4] B2GAB2_D2 | 
[V:1] c'8- | 
[V:2] EDEee4- | 
[V:3] A,4=F,4 | 
[V:4] C4A3G | 
[V:1] c'4d'4 | 
[V:2] e4f4 | 
[V:3] B,8- | 
[V:4] F2>[K:clef=bass]C,2 B,,A,,.G,,.F,, | 
[V:1] e'4=f'4 | 
[V:2] g4B4 | 
[V:3] B,4D4 | 
[V:4] E,,2>E,2 D,C,.B,,.A,, | 
[V:1] g'4a'4 | 
[V:2] B8 | 
[V:3] E4F4 | 
[V:4] G,,2>G,2 F,E,.D,.C, | 
[V:1] b'2>e2 dc.B.A | 
[V:2] B2G,2A,4 | 
[V:3] G2E,2F,4 | 
[V:4] B,,2z2z4 | 
[V:1] G2>g2 fe.d.c | 
[V:2] B,4D4 | 
[V:3] G,4A,4 | 
[V:4] E,,4F,,4 | 
[V:1] B[_db][db][db] [db][db][db][db] | 
[V:2] _Dggg [=eg][eg][eg][eg] | 
[V:3] [B,2=E2]z2G,2B,2 | 
[V:4] G,,2z2z4 | 
[V:1] [cb][cb][cb][cb] [ca][ca][ca][ca] | 
[V:2] gggg ffff | 
[V:3] z4F,2A,2 | 
[V:4] C,2=E,2z4 | 
[V:1] [Ba][Ba][Ba][Ba] [Bg][Bg][cf][cf] | 
[V:2] ffff eeee | 
[V:3] z4E,2A,2 | 
[V:4] B,,2D,2z4 | 
[V:1] [Bg][Bb][Bb][Bb] [Bb][Bb][Bb][Bb] | 
[V:2] e[eg][eg][eg] [df][df][df][df] | 
[V:3] B,2z2B,2z2 | 
[V:4] z2B,,2z2B,,2 | 
[V:1] z4f2b2 | 
[V:2] z8 | 
[V:3] [DF][DF][DF][DF] [DF][DF][DF][DF] | 
[V:4] B,B,B,B, B,B,B,B, | 
[V:1] z4g2=b2 | 
[V:2] d2^f2z4 | 
[V:3] [C^F][CF][CF][CF] [D=F][DF][DF][DF] | 
[V:4] =A,A,A,A, G,G,G,G, | 
[V:1] z4=a2c'2 | 
[V:2] c2g2z4 | 
[V:3] EGGG GGGG | 
[V:4] CEEE EEEE | 
[V:1] d'2z2d'2z2 | 
[V:2] z2d2z2d2 | 
[V:3] [GB][GB][GB][GB] [^F=A][FA][FA][FA] | 
[V:4] DDDD D,D,D,D, | 
[V:1] [db][db][db][db] [db][db][db][db] | 
[V:2] z4gggg | 
[V:3] G2z2G,2B,2 | 
[V:4] G,,2z2z4 | 
[V:1] [d=a][da][da][da] [dg][dg][dg][dg] | 
[V:2] cccc =B=fff | 
[V:3] z4G,2=B,2 | 
[V:4] D,2^F,2z4 | 
[V:1] [cg][cg][cg][cg] [ca][ca][cf][cf] | 
[V:2] eeee dddd | 
[V:3] z4=F,2A,2 | 
[V:4] C,2E,2z4 | 
[V:1] [cg][cg][cg][cg] [=Bg][Bg][Bg][Bg] | 
[V:2] eeee dddd | 
[V:3] G,2z2G,2z2 | 
[V:4] z2G,,2z2G,,2 | 
[V:1] z4_d2f2 | 
[V:2] z8 | 
[V:3] EEEE [_DF][DF][DF][DF] | 
[V:4] CCCC CCCC | 
[V:1] z4c2=e2 | 
[V:2] g2b2z4 | 
[V:3] [_DG][DG][DG][DG] [CG][CG][CG][CG] | 
[V:4] B,B,B,B, B,B,B,B, | 
[V:1] f2a2b2d'2 | 
[V:2] z4B2d2 | 
[V:3] [CF][CF][CF][CF] [B,F][B,F][B,F][B,F] | 
[V:4] A,A,A,A, A,A,A,A, | 
[V:1] e'2z2f'2z2 | 
[V:2] e2e2z2f2 | 
[V:3] [B,E][B,E][B,E][B,E] [=A,E][A,E][CE][CE] | 
[V:4] G,G,G,G, F,F,F,F, | 
[V:1] .[B2b2]z2z4 | 
[V:2] z2.[B2b2]_c4- | 
[V:3] .[B,2D2]z2z4 | 
[V:4] .B,,2z2z4[K:clef=tenor] | 
[V:1] f4_g4 | 
[V:2] c4-c4 | 
[V:3] d4e4 | 
[V:4] A4=A4[K:clef=bass] | 
[V:1] .[B2b2]z2z4 | 
[V:2] .f2.[B2b2]z4 | 
[V:3] .[D2d2].[B,2D2]_C4- | 
[V:4] .B,,2z2z4 | 
[V:1] F8 | 
[V:2] D8 | 
[V:3] C8 | 
[V:4] A,8 | 
[V:1] _G8 | 
[V:2] E8 | 
[V:3] =C8 | 
[V:4] =A,8 | 
[V:1] c4-cB.F.=G | 
[V:2] [B,4F4]-[B,F].F.B,.B, | 
[V:3] D4-D.D.D.=E | 
[V:4] A,4-A,.A,.A,.G, | 
[V:1] ACDB, EB,FB, | 
[V:2] A,A,A,A, G,B,B,B, | 
[V:3] FF,F,F, E,G,D,A, | 
[V:4] F,B,,B,,B,, E,,E,,B,,B,, | 
[V:1] G zz2zd2=e | 
[V:2] B,B2=B c_B.F.G | 
[V:3] G,B,2=B, C_B,.F,.G, | 
[V:4] E, zz2z4 | 
[V:1] .f.g.a.b bbbb | 
[V:2] .A.E.F.B, EGAA | 
[V:3] .A,.E,.F,.F, G,E,D,D, | 
[V:4] zC,,2D,, E,,[K:clef=tenor] .B,.F.B, | 
[V:1] bgggg2z2 | 
[V:2] GBBBB2z2 | 
[V:3] E, zz2z4 | 
[V:4] E4-E/D/C/B,/ C/D/E/F/ | 
[V:1] z gggg2z2 | 
[V:2] z eeee2z2 | 
[V:3] E4-E/D/C/B,/ C/D/E/F/ | 
[V:4] G4-G/F/E/D/ E/F/G/A/ | 
[V:1] z4e4- | 
[V:2] e4-e/d/c/B/ c/d/e/f/ | 
[V:3] G/A/B/c/ B/A/G/F/ E zz2 | 
[V:4] B/c/d/e/ d/c/B/A/ G/A/B/c/ B/A/G/F/ | 
[V:1] e/d/c/B/ c/d/e/f/ g/f/e/d/ e/f/g/a/ | 
[V:2] g/f/e/d/ e/f/g/a/ b zz2 | 
[V:3] G,/A,/B,/C/ B,/A,/G,/F,/ E, zz2 | 
[V:4] E zz2[K:clef=bass]B,,/C,/D,/E,/ D,/C,/B,,/A,,/ | 
[V:1] .b2.c'2.d'2.e'2 | 
[V:2] z4z2z [Ec] | 
[V:3] z4z2z G, | 
[V:4] G,,/A,,/B,,/C,/ B,,/A,,/G,,/F,,/ .E,,.D,,.C,,.B,, | 
[V:1] e'2E4(3FGA | 
[V:2] [E2c2]C2_C2[B,2D2] | 
[V:3] F,2F4F,2 | 
[V:4] =A,,4_A,,4 | 
[V:1] B6_d2 | 
[V:2] B,2z2B4- | 
[V:3] G,2z2z4 | 
[V:4] G,,2z2G,,/A,,/B,,/C,/ B,,/A,,/G,,/F,,/ | 
[V:1] c2g2G2c2 | 
[V:2] B2_d2c2=eg | 
[V:3] G,/A,/B,/C/ B,/A,/G,/F,/ =E, zz2 | 
[V:4] =E,, zz2z4 | 
[V:1] B2A4c'2 | 
[V:2] G2c2BA3- | 
[V:3] z4F,/G,/A,/B,/ A,/G,/F,/E,/ | 
[V:4] F,,/G,,/A,,/B,,/ C,/B,,/A,,/G,,/ F,, zz2 | 
[V:1] b2f'2f2b2 | 
[V:2] AcBf z FB,F | 
[V:3] D, zz2F,/G,/A,/B,/ C/D/E/F/ | 
[V:4] F,,/G,,/A,,/B,,/ A,,/G,,/F,,/E,,/ D,,F,/G,/ A,/B,/C/D/ | 
[V:1] a2[G4g4][G2g2] | 
[V:2] E/F/E/F/ G/A/G/A/ B/c/B/c/ ._d.d | 
[V:3] G2E/F/E/F/ G/A/G/A/ .B.B | 
[V:4] E6E2 | 
[V:1] [G8g8-] | 
[V:2] =d4=e4 | 
[V:3] =B4_B4 | 
[V:4] D4C4 | 
[V:1] gf.g.ac2d2 | 
[V:2] cF.G.AC2D2 | 
[V:3] A2F,4^F,2 | 
[V:4] F2A,,4=A,,2 | 
[V:1] e4f3B | 
[V:2] E4D3D | 
[V:3] [G,4B,4]A,G,.A,.=F, | 
[V:4] B,,A,,.B,,.C,2<B,,2B,, | 
[V:1] E/F/E/F/ G/A/G/A/ B/c/B/c/ ._d.d | 
[V:2] G2[G,4G4][G,2G2] | 
[V:3] G,2E,/F,/E,/F,/ G,/A,/G,/A,/ .B,.B, | 
[V:4] E,2E,,4E,,2 | 
[V:1] =d4=e4 | 
[V:2] [G,8G8]- | 
[V:3] =B,2=B2_B2_B,2 | 
[V:4] D,,4C,,4 | 
[V:1] f2a2z2a2 | 
[V:2] [G,G]F=EF GACF | 
[V:3] A,2A2z2A2 | 
[V:4] F,,F,=E,F, G,A,C,F, | 
[V:1] z2b2z2b2 | 
[V:2] FEB,C B,C.B,.B, | 
[V:3] z2G2z2D2 | 
[V:4] F,E,B,,C, B,,C,.B,,.B,, | 
[V:1] g4-gbgg | 
[V:2] B,4-B,BB,B, | 
[V:3] E,4-E,F,E,E, | 
[V:4] E,,4-E,,D,,E,,E,, | 
[V:1] gbgg gaff | 
[V:2] B,BB,B, B,B,B,B, | 
[V:3] E,F,E,E, E,F,D,D, | 
[V:4] E,,D,,E,,E,, E,,B,,B,,B,, | 
[V:1] fgg2z AFF | 
[V:2] B,2B,2z B,B,B, | 
[V:3] D,E,E,2z F,D,D, | 
[V:4] B,,E,,E,,2z B,,B,,B,, | 
[V:1] FGG2z AFG | 
[V:2] B,2B,2z B,B,B, | 
[V:3] D,E,E,2z F,D,E, | 
[V:4] B,,E,,E,,2z B,,B,,E,, | 
[V:1] G2z2G2z2 | 
[V:2] B,2z2B,2z2 | 
[V:3] E,2z2E,2z2 | 
[V:4] E,,2z2E,,2z2 | 
[V:1] .G2.G2.G2.G2 | 
[V:2] .B,2.B,2.B,2.B,2 | 
[V:3] .E,2.E,2.E,2.E,2 | 
[V:4] .E,,2.E,,2.E,,2.E,,2 | 
[V:1] G8 | 
[V:2] B,8 | 
[V:3] E,8 | 
[V:4] E,,8 | 
[V:1] G8 | 
[V:2] B,8 | 
[V:3] E,8 | 
[V:4] E,,8 | 
[V:1] G2z2z BGG | 
[V:2] B,2z2z FB,B, | 
[V:3] E,2z2z DEE | 
[V:4] E,,D,E,E,E,2z2 | 
[V:1] G2z2z GEE | 
[V:2] B,2z2z DG,G, | 
[V:3] E2z2z =B,CC | 
[V:4] z D,E,E,=B,,2z2 | 
[V:1] E2z2z EDD | 
[V:2] G,2z2z C=A,A, | 
[V:3] C2z2z =A,CC | 
[V:4] z =B,,C,C,^F,,2z2 | 
[V:1] D2z2D2z2 | 
[V:2] =A,2z2A,2z2 | 
[V:3] [D,2C2]z2[D,2C2]z2 | 
[V:4] ^F,2z2F,2z2 | 
[V:1] .D2.D2.D2.D2 | 
[V:2] .A,2.A,2.A,2.A,2 | 
[V:3] .[D,2C2].[D,2C2].[D,2C2].[D,2C2] | 
[V:4] .^F,2.F,2.F,2.F,2 | 
[V:1] D8 | 
[V:2] A,8 | 
[V:3] [D,8C8] | 
[V:4] ^F,8 | 
[V:1] D8 | 
[V:2] C8 | 
[V:3] =A,8 | 
[V:4] ^F,,8 | 
[V:1] D8 | 
[V:2] =B,8 | 
[V:3] A,8 | 
[V:4] =F,,8 | 
[V:1] D4E4 | 
[V:2] =B,4C4 | 
[V:3] A,4G,4 | 
[V:4] F,,4E,,4 | 
[V:1] F8 | 
[V:2] D8 | 
[V:3] F,8 | 
[V:4] D,,8 | 
[V:1] F4G4 | 
[V:2] D4E4 | 
[V:3] F,4E,4 | 
[V:4] D,,4C,,2C,2 | 
[V:1] A2FGA2D2 | 
[V:2] F2z2a2fg | 
[V:3] D,2z2F2DE | 
[V:4] [=B,,8D,8] | 
[V:1] A2FGA2=B,2 | 
[V:2] a2d2a2fg | 
[V:3] F2=B,2F2DE | 
[V:4] [=B,,8D,8] | 
[V:1] A2FGA2B,2 | 
[V:2] a2d2a2fg | 
[V:3] F2B,2F2DE | 
[V:4] [B,,8D,8] | 
[V:1] G2EFG2B,2 | 
[V:2] g2B2g2eg | 
[V:3] E2G,2E2G,B, | 
[V:4] [B,,8E,8] | 
[V:1] F2DEF2A,2 | 
[V:2] f2A2f2df | 
[V:3] A,2F,2A,2F,A, | 
[V:4] [B,,8F,8] | 
[V:1] E2B,DE2GE | 
[V:2] e2G2e2Bc | 
[V:3] G,2E,2G,2E_G | 
[V:4] [B,,6G,6]B,,2 | 
[V:1] =A,/C/.E/.G/ A/G/E/C/ A,/C/.E/.G/ A/G/E/C/ | 
[V:2] .[E2c2]z2z4 | 
[V:3] .G2z2z4 | 
[V:4] .B,,2z2B,,2E,2 | 
[V:1] =A,/C/.E/._G/ =A/G/E/C/ A,/C/.E/.G/ A/G/E/C/ | 
[V:2] z8 | 
[V:3] _G,2=A,2C2E2 | 
[V:4] _G,2z2z4 | 
[V:1] =A,/C/.E/._G/ =A/G/E/C/ A,/C/.E/.G/ A/G/E/C/ | 
[V:2] =A2c2e2_g2 | 
[V:3] _G2z2z4 | 
[V:4] z8 | 
[V:1] =A,/C/.E/._G/ A/G/E/C/ A,/C/.E/.G/ A/G/E/C/ | 
[V:2] =a2c'2e'2z2 | 
[V:3] z4z2._G,2 | 
[V:4] z4z2.=A,,2 | 
[V:1] D/F/A/_c/ d/c/A/F/ F/A/c/d/ f/d/c/A/ | 
[V:2] .[D2_c2]z2z4 | 
[V:3] .F,2z2z4 | 
[V:4] .A,,2z2A,,2D,2 | 
[V:1] D/A/_c/d/ f/d/c/A/ D/c/a/c/ a/c/D/c/ | 
[V:2] z8 | 
[V:3] F,2A,2_C2D2 | 
[V:4] F,2z2z4 | 
[V:1] D/_c/a/c/ a/c/D/c/ D/c/a/c/ a/c/D/c/ | 
[V:2] F2A2_c2d2 | 
[V:3] z8 | 
[V:4] z8 | 
[V:1] D/_c/a/c/ a/c/D/c/ D/c/a/c/ a/c/D/c/ | 
[V:2] f2a2_c'2z2 | 
[V:3] z4z2.A,2 | 
[V:4] z4z2F,2 | 
[V:1] =E/_d/b/d/ b/d/E/d/ E/d/b/d/ b/d/E/d/ | 
[V:2] [=E2_d2]z2z4 | 
[V:3] .[=G,2B,2]z2z4 | 
[V:4] .G,,2z2G,,2B,,2 | 
[V:1] =E/_d/b/d/ b/d/E/d/ E/d/b/d/ b/d/E/d/ | 
[V:2] z8 | 
[V:3] _D,2=E,2G,2B,2 | 
[V:4] _D,2z2z4 | 
[V:1] =E/_d/b/d/ b/d/E/d/ E/d/b/d/ b/d/E/d/ | 
[V:2] _D2=E2G2B2 | 
[V:3] z8 | 
[V:4] z8 | 
[V:1] =E/_d/b/d/ b/d/E/d/ E/=c/b/c/ g/c/E/c/ | 
[V:2] _d2z2=c4- | 
[V:3] =E2G2B2B,2 | 
[V:4] z4z2G,,2 | 
[V:1] F/c/g/c/ f/c/F/c/ F/c/f/c/ a/c/F/c/ | 
[V:2] c2ABc2F2 | 
[V:3] F,2z2C4- | 
[V:4] A,,2z2A,,2F,2 | 
[V:1] F/=d/a/d/ a/d/F/d/ G/d/g/d/ g/d/B/d/ | 
[V:2] =d4d4- | 
[V:3] C2B,CD2G,2 | 
[V:4] B,,2z2B,,2D,2 | 
[V:1] G/d/b/d/ b/d/G/d/ G/d/b/d/ b/d/B/d/ | 
[V:2] d2Bcd2G2 | 
[V:3] D4D4- | 
[V:4] B,,2z2B,,2G,2 | 
[V:1] B/e/g/e/ g/e/B/e/ c/e/a/e/ a/e/c/e/ | 
[V:2] e4e4- | 
[V:3] D2CDE2A,2 | 
[V:4] C,2z2C,2E,2 | 
[V:1] c/e/a/e/ a/e/c/e/ A/c/e/c/ e/c/A/c/ | 
[V:2] e2cde2A2 | 
[V:3] E4E4- | 
[V:4] C,2z2C,,2A,,2 | 
[V:1] A/B/f/B/ f/B/A/B/ F/A/B/A/ B/A/F/A/ | 
[V:2] f4f4- | 
[V:3] E2DEF2B,2 | 
[V:4] D,,2z2D,,2D,2 | 
[V:1] B,/F/A/F/ A/F/B,/F/ A,/C/F/B,/ F/B,/A,/B,/ | 
[V:2] f2def2B2 | 
[V:3] F4F4- | 
[V:4] D,,2z2.D,,.F,,.B,,.D, | 
[V:1] G,/B,/E/G/ B,/E/G/B/ G/B/e/g/ c/f/a/c'/ | 
[V:2] g6a2 | 
[V:3] F2E4F2 | 
[V:4] E,6A,,2 | 
[V:1] D/b/a/f/ a/f/d/B/ A/F/D/A,/ F/D/B,/A,/ | 
[V:2] f4b4 | 
[V:3] D2F2A,2D2 | 
[V:4] B,,4B,,4 | 
[V:1] G,/B,/E/G/ B,/E/G/B/ G/B/e/g/ c/f/a/c'/ | 
[V:2] g6a2 | 
[V:3] B,2B2E2F2 | 
[V:4] E,6A,,2 | 
[V:1] D/b/a/f/ a/f/d/B/ A/F/D/B,/ F/D/B,/A,/ | 
[V:2] f4b4 | 
[V:3] D2F2A,2D2 | 
[V:4] B,,4B,,4 | 
[V:1] G,/B,/E/G/ B,/E/G/B/ G/B/e/g/ c/e/a/c'/ | 
[V:2] g6c'2 | 
[V:3] B,2B2E2A2 | 
[V:4] E,6A,,2 | 
[V:1] G,/B,/E/G/ B/e/g/b/ a/g/f/g/ a/b/c'/d'/ | 
[V:2] b4d4 | 
[V:3] G2G,2F,2B,2 | 
[V:4] B,,4B,,4 | 
[V:1] e'2z2z FEE | 
[V:2] [G2e2]z2z bgg | 
[V:3] E,2z2z B,B,B, | 
[V:4] E,,2z2z D,E,E, | 
[V:1] EFEE EFDD | 
[V:2] gbgg gaff | 
[V:3] B,B,B,B, B,B,B,B, | 
[V:4] E,D,E,E, E,B,,B,,B,, | 
[V:1] DEE2z AFF | 
[V:2] fgg2z FDD | 
[V:3] B,2B,2z B,B,B, | 
[V:4] B,,E,E,2z B,,B,,B,, | 
[V:1] FGG2z B,B,B, | 
[V:2] DEE2z AFF | 
[V:3] B,2B,2z F,D,D, | 
[V:4] B,,E,E,2z B,,B,,B,, | 
[V:1] B,2B,2z B,B,B, | 
[V:2] FGG2z4 | 
[V:3] D,E,E,2z A,F,F, | 
[V:4] B,,E,,E,,2z [B,,F,][B,,D,][B,,D,] | 
[V:1] B,8 | 
[V:2] z4b2g2 | 
[V:3] [E,8G,8]- | 
[V:4] E,,2z2E,,2G,,2 | 
[V:1] B,8- | 
[V:2] e2B2g2e2 | 
[V:3] [E,8G,8]- | 
[V:4] B,,2E,2G,,2B,,2 | 
[V:1] B,4-B,4- | 
[V:2] B2G2e2B2 | 
[V:3] [E,8G,8]- | 
[V:4] E,2G,2B,,2E,2 | 
[V:1] B,6A,2 | 
[V:2] G2E2B,2D2 | 
[V:3] [E,6G,6]B,2 | 
[V:4] G,2B,2E2F2 | 
[V:1] .G,2z2.E2.G2 | 
[V:2] E2z2eeBB | 
[V:3] [E,8G,8]- | 
[V:4] G2z2.E2.B,2 | 
[V:1] .B2.e2.G2.B2 | 
[V:2] GGEE BBGG | 
[V:3] [E,8G,8]- | 
[V:4] .G,2E,2.B,2.G,2 | 
[V:1] .e2.g2.B2.e2 | 
[V:2] EEB,B, GGEE | 
[V:3] [E,8G,8]- | 
[V:4] .E,2.B,,2.G,2.E,2 | 
[V:1] .g2.b2.e'2.f'2 | 
[V:2] B,BGG Eedd | 
[V:3] [E,4G,4]-[E,G,]B,B,B, | 
[V:4] .B,,2.G,,2.E,,2.B,,2 | 
[V:1] .g'2z2.E2.F2 | 
[V:2] .e2z2.B,2.D2 | 
[V:3] .B,2z2G,G,B,B, | 
[V:4] .E,,2z2z4 | 
[V:1] G2z2.e2.[D2B2f2] | 
[V:2] E2z2.B2.B2 | 
[V:3] E,2z2.G,2.B,2 | 
[V:4] z4.E,2.B,,2 | 
[V:1] [G,2B2g2]z2[D2B2b2]z2 | 
[V:2] [E2B2]z2[B,2F2d2]z2 | 
[V:3] E,2z2[F,2A,2]z2 | 
[V:4] E,2z2B,,2z2 | 
[V:1] [G,2E2]z2z4 |]  
[V:2] [B,2G2e2]z2z4 |]  
[V:3] [E,2G,2]z2z4 |]  
[V:4] E,,2z2z4 |]  


